apps/frontend/src/icons/streaming.svg

<svg width="24" height="24" viewBox="0 0 24 24" fill="none" xmlns="http://www.w3.org/2000/svg">
<path d="M16.3467 21.0966C15.6134 21.0911 14.8834 20.9991 14.1717 20.8223C11.7141 20.2294 9.18328 18.7252 7.04672 16.5867C4.91015 14.4483 3.40406 11.917 2.81109 9.46172C2.18671 6.87891 2.63203 4.66922 4.06359 3.23766L4.47234 2.82891C4.8432 2.4588 5.34574 2.25093 5.86968 2.25093C6.39363 2.25093 6.89617 2.4588 7.26703 2.82891L9.61593 5.17735C9.98628 5.54808 10.1943 6.05067 10.1943 6.57469C10.1943 7.09871 9.98628 7.6013 9.61593 7.97203L8.22843 9.35907C8.89359 10.5263 9.79828 11.6944 10.8675 12.7636C11.9367 13.8328 13.1058 14.738 14.2725 15.4031L15.6595 14.0156C15.843 13.8321 16.0608 13.6865 16.3006 13.5871C16.5404 13.4878 16.7973 13.4367 17.0569 13.4367C17.3164 13.4367 17.5734 13.4878 17.8131 13.5871C18.0529 13.6865 18.2707 13.8321 18.4542 14.0156L20.8027 16.3641C21.1731 16.7347 21.3812 17.2372 21.3812 17.7612C21.3812 18.2852 21.1731 18.7877 20.8027 19.1583L20.3934 19.567C19.3842 20.5781 17.9873 21.0966 16.3467 21.0966ZM5.86968 3.65625C5.79484 3.65588 5.72068 3.67045 5.65154 3.69911C5.58239 3.72776 5.51967 3.76992 5.46703 3.82313L5.05781 4.23188C3.98578 5.30391 3.67265 7.04438 4.17609 9.12985C4.70906 11.3391 6.08109 13.6345 8.03906 15.592C9.99703 17.5495 12.292 18.9202 14.5017 19.455C16.5877 19.9584 18.3272 19.6453 19.3992 18.5733L19.808 18.1645C19.9148 18.0577 19.9748 17.9127 19.9748 17.7616C19.9748 17.6105 19.9148 17.4656 19.808 17.3588L17.46 15.0103C17.3531 14.9035 17.2082 14.8435 17.0571 14.8435C16.906 14.8435 16.7611 14.9035 16.6542 15.0103L14.8959 16.7686C14.7904 16.8742 14.6541 16.9434 14.5066 16.9663C14.3591 16.9893 14.2082 16.9647 14.0756 16.8961C12.6342 16.1508 11.1811 15.0656 9.87328 13.7578C8.56547 12.45 7.48265 10.9978 6.73547 9.55641C6.66685 9.42389 6.64217 9.27298 6.66501 9.12551C6.68785 8.97803 6.75701 8.84165 6.8625 8.7361L8.62125 6.97782C8.72804 6.87093 8.78804 6.72602 8.78804 6.57492C8.78804 6.42383 8.72804 6.27892 8.62125 6.17203L6.27281 3.82313C6.22 3.77002 6.15718 3.72792 6.08798 3.69927C6.01878 3.67062 5.94458 3.656 5.86968 3.65625Z" fill="#DBE2E6"/>
<path d="M17.0977 12.6436C16.9112 12.6436 16.7323 12.5695 16.6005 12.4377C16.4686 12.3058 16.3945 12.127 16.3945 11.9405C16.3932 10.707 15.9026 9.52437 15.0304 8.65211C14.1582 7.77985 12.9757 7.28915 11.7422 7.28766C11.5557 7.28766 11.3769 7.21358 11.245 7.08172C11.1131 6.94986 11.0391 6.77101 11.0391 6.58453C11.0391 6.39805 11.1131 6.21921 11.245 6.08735C11.3769 5.95549 11.5557 5.88141 11.7422 5.88141C15.083 5.88141 17.8008 8.60016 17.8008 11.9405C17.8008 12.127 17.7267 12.3058 17.5948 12.4377C17.463 12.5695 17.2841 12.6436 17.0977 12.6436Z" fill="#DBE2E6"/>
<path d="M20.0695 12.6436C19.883 12.6436 19.7042 12.5695 19.5723 12.4377C19.4405 12.3058 19.3664 12.1269 19.3664 11.9405C19.3664 7.73625 15.9445 4.31578 11.7422 4.31578C11.5557 4.31578 11.3769 4.2417 11.245 4.10984C11.1131 3.97798 11.0391 3.79914 11.0391 3.61266C11.0391 3.42618 11.1131 3.24733 11.245 3.11547C11.3769 2.98361 11.5557 2.90953 11.7422 2.90953C16.7217 2.90953 20.7727 6.96094 20.7727 11.9405C20.7727 12.1269 20.6986 12.3058 20.5667 12.4377C20.4349 12.5695 20.256 12.6436 20.0695 12.6436Z" fill="#DBE2E6"/>
</svg>

<svg xmlns="http://www.w3.org/2000/svg" width="24" height="24" fill="none"><path fill="#DBE2E6" d="M16.347 21.097a9.3 9.3 0 0 1-2.175-.275c-2.458-.593-4.989-2.097-7.125-4.235s-3.643-4.67-4.236-7.125c-.624-2.583-.179-4.793 1.253-6.224l.408-.41a1.98 1.98 0 0 1 2.795 0l2.349 2.35a1.977 1.977 0 0 1 0 2.794L8.228 9.359c.666 1.167 1.57 2.335 2.64 3.405 1.069 1.069 2.238 1.974 3.405 2.64l1.386-1.388a1.977 1.977 0 0 1 2.795 0l2.349 2.348a1.976 1.976 0 0 1 0 2.794l-.41.409c-1.009 1.011-2.406 1.53-4.046 1.53M5.87 3.657a.56.56 0 0 0-.403.166l-.41.409c-1.071 1.072-1.384 2.812-.88 4.898.532 2.21 1.904 4.504 3.862 6.462 1.958 1.957 4.253 3.328 6.463 3.863 2.086.503 3.825.19 4.897-.882l.409-.409a.57.57 0 0 0 0-.805L17.46 15.01a.57.57 0 0 0-.806 0l-1.758 1.759a.7.7 0 0 1-.82.127c-1.442-.745-2.895-1.83-4.203-3.138s-2.39-2.76-3.138-4.202a.7.7 0 0 1 .127-.82l1.76-1.758a.57.57 0 0 0 0-.806l-2.35-2.349a.57.57 0 0 0-.402-.167"/><path fill="#DBE2E6" d="M17.098 12.644a.703.703 0 0 1-.703-.703 4.66 4.66 0 0 0-4.653-4.653.703.703 0 0 1 0-1.407 6.066 6.066 0 0 1 6.059 6.06.703.703 0 0 1-.703.703"/><path fill="#DBE2E6" d="M20.07 12.644a.703.703 0 0 1-.704-.703c0-4.205-3.421-7.625-7.624-7.625a.703.703 0 0 1 0-1.406c4.98 0 9.03 4.05 9.03 9.03a.703.703 0 0 1-.702.704"/></svg>
